X: 7009
T: Chickens Are A-Crowin'
R: reel
M: 4/4
K: Ddorian
|:D2 DE FEFG|A2 AF D2 A2|G2 GA GF D2|A2 AF D2 A2|
D2 DE FEFG|A2 AF D2 A2|G2 GA GFDC|1 D2 DE D2 Ad:|2 D2 DE D2 Ac||
|:d2 de dcAc|d2 dc A2 Ac|d2 dA c2 cA|GECE GGFE|
D2 DE FEFG|A2 AF D2 A2|G2 GA GFDC|1 D2 DE D2 Ac:|2 D2 DE D2 A2||

